X: 36262
T: Seals In The Town
R: polka
M: 2/4
K: Aminor
c/d/|:ec AG/A/|BG Bc/d/|ec AG/A/|B2- Bc/d/|
ec AG/A/|BG Bd|cB G/A/B|1 A2 A/B/c/d/:|2 A2 A2||
|:aa g/f/e|fd e2|AF A/B/c/d/|ec B2|
aa g/f/e|fd e2|cB G/A/B|1 A2 A2:|2 A2 A/B/c/d/||

